svgs/regular/shelves.svg

<svg xmlns="http://www.w3.org/2000/svg" viewBox="0 0 640 512"><!--! Font Awesome Pro 6.6.0 by @fontawesome - https://fontawesome.com License - https://fontawesome.com/license (Commercial License) Copyright 2024 Fonticons, Inc. --><path d="M24 0C37.3 0 48 10.7 48 24l0 136 544 0 0-136c0-13.3 10.7-24 24-24s24 10.7 24 24l0 160 0 256 0 48c0 13.3-10.7 24-24 24s-24-10.7-24-24l0-24L48 464l0 24c0 13.3-10.7 24-24 24s-24-10.7-24-24l0-48L0 184 0 24C0 10.7 10.7 0 24 0zM48 416l544 0 0-208L48 208l0 208zM352 32c0-17.7 14.3-32 32-32l64 0c17.7 0 32 14.3 32 32l0 64c0 17.7-14.3 32-32 32l-64 0c-17.7 0-32-14.3-32-32l0-64zM128 256l64 0c17.7 0 32 14.3 32 32l0 64c0 17.7-14.3 32-32 32l-64 0c-17.7 0-32-14.3-32-32l0-64c0-17.7 14.3-32 32-32zm160 0l64 0c17.7 0 32 14.3 32 32l0 64c0 17.7-14.3 32-32 32l-64 0c-17.7 0-32-14.3-32-32l0-64c0-17.7 14.3-32 32-32z"/></svg>

<svg xmlns="http://www.w3.org/2000/svg" viewBox="0 0 640 512"><!--! Font Awesome Pro 6.4.0 by @fontawesome - https://fontawesome.com License - https://fontawesome.com/license (Commercial License) Copyright 2023 Fonticons, Inc. --><path d="M24 0C37.3 0 48 10.7 48 24V160H592V24c0-13.3 10.7-24 24-24s24 10.7 24 24V184 440v48c0 13.3-10.7 24-24 24s-24-10.7-24-24V464H48v24c0 13.3-10.7 24-24 24s-24-10.7-24-24V440 184 24C0 10.7 10.7 0 24 0zM48 416H592V208H48V416zM352 32c0-17.7 14.3-32 32-32h64c17.7 0 32 14.3 32 32V96c0 17.7-14.3 32-32 32H384c-17.7 0-32-14.3-32-32V32zM128 256h64c17.7 0 32 14.3 32 32v64c0 17.7-14.3 32-32 32H128c-17.7 0-32-14.3-32-32V288c0-17.7 14.3-32 32-32zm160 0h64c17.7 0 32 14.3 32 32v64c0 17.7-14.3 32-32 32H288c-17.7 0-32-14.3-32-32V288c0-17.7 14.3-32 32-32z"/></svg>
